X: 131005
T: I'M A YOUNG MAN
Q: "Scotch Jig."
R: Jig.
%R: jig
B: James Kerr "Merry Melodies" v.1 p.31 s.0 #5
Z: 2016 John Chambers <jc:trillian.mit.edu>
M: 6/8
L: 1/8
K: D
uf |\
ABA ABd | efg fdB | ABA Adf | e3- e2uf |\
ABA ABd | efg fdB | ABA Afe | d3- d2 :|
(d/e/) |\
vf2vf fef | va2vf fed | ve2ve egf | e3- e(ag) |\
fed def | ABA AFG | ABA Afe | d3- d2 |]

%%sep 1 1 500
%%sep 1 1 500

